communes/4240.svg

<?xml version="1.0" encoding="UTF-8"?>
<!DOCTYPE svg  PUBLIC '-//W3C//DTD SVG 1.1//EN'  'http://www.w3.org/Graphics/SVG/1.1/DTD/svg11.dtd'>
<svg width="520" height="585" version="1.1" viewBox="0 0 100 112.5" xmlns="http://www.w3.org/2000/svg" xmlns:xlink="http://www.w3.org/1999/xlink">
<title>Wappen von Waltenschwil</title>
<desc>Wappen der Schweizer Gemeinde Waltenschwil, Kanton Aargau</desc>
<defs>
<clipPath id="c">
<path d="m2 2h96v60.5a48 48 0 0 1-96 0z"/>
</clipPath>
<clipPath id="b">
<circle cx="22" cy="50" r="39"/>
</clipPath>
</defs>
<path d="m1 1h98v61.5a49 49 0 0 1-98 0z" fill="#0093dd" stroke="#000" stroke-width="2"/>
<g clip-path="url(#c)">
<circle cx="22" cy="50" r="39" fill="#fcdb00" stroke="#000"/>
<circle cx="8" cy="50" r="39.5" clip-path="url(#b)"/>
<circle cx="8" cy="50" r="38.5" fill="#0093dd"/>
</g>
<path id="a" d="m9 46.4h10.1l3.1-9.6 3.1 9.6h10.1l-8.2 5.9 3.1 9.6-8.1-5.9-8.1 5.9 3.1-9.6z" fill="#fff" stroke="#000"/>
<use x="56.3" y="-.7" xlink:href="#a"/>
<use x="56.3" y="27.6" xlink:href="#a"/>
<use x="56.3" y="-29" xlink:href="#a"/>
</svg>

<?xml version="1.0" encoding="utf-8" standalone="no"?>
<!DOCTYPE svg PUBLIC "-//W3C//DTD SVG 1.1//EN" "http://www.w3.org/Graphics/SVG/1.1/DTD/svg11.dtd">
<svg version="1.1"
   xmlns="http://www.w3.org/2000/svg"
   xmlns:xlink="http://www.w3.org/1999/xlink"
   width="520" height="585" viewBox="0 0 100 112.5">
  <title>Wappen von Waltenschwil</title>
  <desc>Wappen der Schweizer Gemeinde Waltenschwil, Kanton Aargau</desc>
  <defs>
    <clipPath id="cpSchild"> <path d="M 2,2 H 98 V 62.5 A 48 48 0 0 1 2,62.5 z" /> </clipPath>
    <clipPath id="cpSichel"> <circle cx="22" cy="50" r="39" /> </clipPath>
  </defs>
  <path d="M 1,1 H 99 V 62.5 A 49 49 0 0 1 1,62.5 z" stroke="black" stroke-width="2" fill="#0093dd" />
  <g clip-path="url(#cpSchild)">
    <circle cx="22" cy="50" r="39" stroke="black" stroke-width="1" fill="#fcdb00" />
    <circle cx="8" cy="50" r="39.5" clip-path="url(#cpSichel)" />
    <circle cx="8" cy="50" r="38.5" fill="#0093dd" />
  </g>
  <path id="stern" d="M 9,46.4 L 19.1,46.4 22.2,36.8 25.3,46.4 35.4,46.4 27.2,52.3 30.3,61.9 22.2,56 14.1,61.9 17.2,52.3 z" stroke="black" stroke-width="1" fill="white" />
  <use x="56.3" y="-.7" xlink:href="#stern" />
  <use x="56.3" y="27.6" xlink:href="#stern" />
  <use x="56.3" y="-29" xlink:href="#stern" />
</svg>
